X: 10
T: Humours Of Whiskey, The
Z: shanachie
S: https://thesession.org/tunes/46#setting49296
R: slip jig
M: 9/8
L: 1/8
K: Bmin
|:"Em"gfe "Bm"fBB fBB|"Em"gfe "Bm"fBB fga|"G"gfe "Bm"fBB efg|"A"agf efd cBA:|
|:"D"d2e fdf "A"ecA|"D"d2e fdf "G"gfe|"D"d2e fdf "G"efg|"A"agf efd cBA:|

